svgs/regular/user-doctor-hair-long.svg

<svg xmlns="http://www.w3.org/2000/svg" viewBox="0 0 448 512"><!--! Font Awesome Pro 6.3.0 by @fontawesome - https://fontawesome.com License - https://fontawesome.com/license (Commercial License) Copyright 2023 Fonticons, Inc. --><path d="M304 128c0-11.4-2.4-22.2-6.7-32H296c-20.5 0-38.7-9.6-50.4-24.5C231.9 95.7 205.8 112 176 112H145.6c-1 5.2-1.6 10.5-1.6 16v16c0 44.2 35.8 80 80 80s80-35.8 80-80V128zM96 128C96 57.3 153.3 0 224 0s128 57.3 128 128v11c0 33.9 13.5 66.5 37.5 90.5l3.9 3.9c4.2 4.2 6.6 10 6.6 16c0 12.5-10.1 22.6-22.6 22.6H224 70.6C58.1 272 48 261.9 48 249.4c0-6 2.4-11.8 6.6-16l3.9-3.9c24-24 37.5-56.6 37.5-90.5V128zm80 224c-5.4 0-10.8 .3-16 1v49.3c23.1 6.9 40 28.3 40 53.7c0 30.9-25.1 56-56 56s-56-25.1-56-56c0-25.4 16.9-46.8 40-53.7v-41c-46.9 19-80 65-80 118.7v8c0 13.3-10.7 24-24 24s-24-10.7-24-24v-8c0-97.2 78.8-176 176-176h96c97.2 0 176 78.8 176 176v8c0 13.3-10.7 24-24 24s-24-10.7-24-24v-8c0-53.7-33.1-99.7-80-118.7V402c27.6 7.1 48 32.2 48 62v32c0 8.8-7.2 16-16 16H328c-8.8 0-16-7.2-16-16s7.2-16 16-16h8V464c0-17.7-14.3-32-32-32s-32 14.3-32 32v16h8c8.8 0 16 7.2 16 16s-7.2 16-16 16H256c-8.8 0-16-7.2-16-16V464c0-29.8 20.4-54.9 48-62V353c-5.2-.7-10.6-1-16-1H176zm-8 104a24 24 0 1 0 -48 0 24 24 0 1 0 48 0z"/></svg>

<svg xmlns="http://www.w3.org/2000/svg" viewBox="0 0 448 512"><!--! Font Awesome Pro 6.2.0 by @fontawesome - https://fontawesome.com License - https://fontawesome.com/license (Commercial License) Copyright 2022 Fonticons, Inc. --><path d="M96 128C96 57.31 153.3 0 224 0C294.7 0 352 57.31 352 128V138.1C352 172.9 365.5 205.5 389.5 229.5L393.4 233.4C397.6 237.6 400 243.4 400 249.4C400 261.9 389.9 272 377.4 272H70.63C58.13 272 47.1 261.9 47.1 249.4C47.1 243.4 50.38 237.6 54.63 233.4L58.51 229.5C82.51 205.5 95.1 172.9 95.1 138.1L96 128zM297.3 96H296C275.5 96 257.3 86.4 245.6 71.46C231.9 95.67 205.8 112 176 112H145.6C144.6 117.2 144 122.5 144 128V144C144 188.2 179.8 224 224 224C268.2 224 304 188.2 304 144V128C304 116.6 301.6 105.8 297.3 96zM176 352C170.6 352 165.2 352.3 160 352.1V402.3C183.1 409.2 200 430.6 200 456C200 486.9 174.9 512 144 512C113.1 512 88 486.9 88 456C88 430.6 104.9 409.2 128 402.3V361.3C81.09 380.3 48 426.3 48 480V488C48 501.3 37.25 512 24 512C10.75 512 0 501.3 0 488V480C0 382.8 78.8 304 176 304H272C369.2 304 448 382.8 448 480V488C448 501.3 437.3 512 424 512C410.7 512 400 501.3 400 488V480C400 426.3 366.9 380.3 320 361.3V402.3C343.1 409.2 360 430.6 360 456V488C360 496.8 352.8 504 344 504C335.2 504 328 496.8 328 488V456C328 442.7 317.3 432 304 432C290.7 432 280 442.7 280 456V488C280 496.8 272.8 504 264 504C255.2 504 248 496.8 248 488V456C248 430.6 264.9 409.2 288 402.3V352.1C282.8 352.3 277.4 352 272 352H176zM144 432C130.7 432 120 442.7 120 456C120 469.3 130.7 480 144 480C157.3 480 168 469.3 168 456C168 442.7 157.3 432 144 432z"/></svg>
